static/assets/images/networks/soneium.svg

<svg width="256" height="256" viewBox="0 0 256 256" fill="none" xmlns="http://www.w3.org/2000/svg">
<path d="M128 256C198.692 256 256 198.692 256 128C256 57.3075 198.692 0 128 0C57.3075 0 0 57.3075 0 128C0 198.692 57.3075 256 128 256Z" fill="black"/>
<path d="M139.301 174.895C131.353 176.805 123.048 176.644 115.179 174.428C107.31 172.211 100.14 168.014 94.3532 162.236C86.6912 154.911 81.7667 145.182 80.399 134.666C79.0314 124.151 81.3032 113.484 86.8363 104.441C90.4684 98.5456 94.8455 93.1441 99.8592 88.3702C115.764 72.5103 144.97 43.6511 144.97 43.6511C123.256 39.3372 100.716 43.5511 82.0226 55.4193C63.3293 67.2875 49.9164 85.8996 44.5647 107.397C39.2065 128.893 42.3127 151.628 53.2401 170.895C64.1675 190.162 82.0795 204.487 103.268 210.903L139.301 174.895Z" fill="white"/>
<path d="M117.119 81.6381C125.067 79.7246 133.372 79.8837 141.241 82.1001C149.11 84.3165 156.279 88.516 162.063 94.2972C177.824 110.076 180.903 133.492 169.522 152.006C165.883 157.905 161.507 163.316 156.499 168.106C140.589 183.941 111.383 212.82 111.383 212.82C133.117 217.177 155.692 212.986 174.418 201.118C193.144 189.25 206.581 170.618 211.937 149.093C217.3 127.569 214.177 104.806 203.215 85.5258C192.253 66.2458 174.295 51.9297 153.066 45.5485L117.119 81.6381Z" fill="white"/>
</svg>

<svg xmlns="http://www.w3.org/2000/svg" fill="none" viewBox="0 0 256 256"><path fill="#000" d="M128 256c70.692 0 128-57.308 128-128S198.692 0 128 0 0 57.308 0 128s57.308 128 128 128"/><path fill="#fff" d="M139.301 174.895a47.8 47.8 0 0 1-24.122-.467 47.83 47.83 0 0 1-20.826-12.192 46.44 46.44 0 0 1-7.517-57.795 80.5 80.5 0 0 1 13.023-16.07c15.905-15.86 45.111-44.72 45.111-44.72A86.13 86.13 0 0 0 82.023 55.42a86.24 86.24 0 0 0-37.458 51.978 86.37 86.37 0 0 0 8.675 63.498 86.26 86.26 0 0 0 50.028 40.008z"/><path fill="#fff" d="M117.119 81.638a47.75 47.75 0 0 1 24.122.462 47.8 47.8 0 0 1 20.822 12.197c15.761 15.779 18.84 39.195 7.459 57.709a81.5 81.5 0 0 1-13.023 16.1c-15.91 15.835-45.116 44.714-45.116 44.714a86.12 86.12 0 0 0 63.035-11.702 86.25 86.25 0 0 0 37.519-52.025 86.37 86.37 0 0 0-8.722-63.567 86.25 86.25 0 0 0-50.149-39.977z"/></svg>
